X: 30305
T: Old Man Dillon
R: jig
M: 6/8
K: Adorian
EAA ABd|edB c2A|BGG DGG|Bdc BAG|
EAA ABd|ede a2e|edc Bcd|1 ecA A2G:|2 ecA A2g||
|:gef g2a|gef g2d|BGG DGG|Bdc BAG|
[1 gef g2a|gef g2d|edc Bcd|ecA A2g:|
[2 EAA ABd|ede a2e|edc Bcd|ecA A3||

